X:1
T:Hanukkah, O Hanukkah!
T:Traditional, arranged Dominic Widdows
%%score 1 2
L:1/8
M:4/4
K:C
V:1 treble nm="Alto Recorder" snm="A. Rec."
V:2 bass-8 nm="Double Bass" snm="Cb."
V:1
 EEEE AEEE | E2 DC D2 C2 | E2 EE A2 EE | E2 DC D2 C2 | CDED C2 A,A, | B,2 A,G, A,4 | CDED C2 A,A, | %7
w: Ha- nuk- kah O Ha- nuk- kah come|light the me- no- rah|Let's have a par- ty we'll|all dance the ho- rah|Ga- ther round the ta- ble we'll|give you a treat|Drei- * dels to play with and|
 B,2 A,G, A,2 A,2 || E2 E4 A,2 | E2 E4 A,2 | E2 EE F2 ED | E8 | E2 EE F2 ED | E2 EE F2 ED | %14
w: lat- kes to eat And|while we are|play- ing the|can- dles are bur- ning *|bright|One for each night they *|shed a sweet light to re-|
 C2 CC D2 CD | E6 A,2 | E2 E4 A,2 | E2 E4 A,2 | E2 EE F2 ED | E8 | E2 EE F2 ED | E2 EE F2 ED | %22
w: mind us of days long a-|go And|while we are|play- ing the|can- dles are bur- ning *|low|One for each night they *|shed a sweet light to re-|
 C2 CC D2 CB, | A,8 |] %24
w: mind us of days long a-|go.|
V:2
"^Pizz." A,,2 E,2 A,2 E,2 | A,,2 E,2 A,2 E,2 | A,,2 E,2 A,2 E,2 | A,,2 E,2 D,2 F,2 | %4
 A,,2 E,2 A,,2 E,2 | E,,2 E,2 A,,2 E,2 | A,,2 E,2 A,,2 E,2 | E,,2 E,2 A,,2 E,2 || %8
 E,,2 E,2 E,,2 E,2 | E,,2 E,2 E,,2 E,2 | A,,2 E,2 D,2 F,2 | E,2 A,,2 A,2 A,,2 | A,,2 E,2 D,2 F,2 | %13
 A,,2 E,2 D,2 F,2 | A,,2 E,2 E,,2 E,2 | A,,2 E,2 A,2 E,2 | E,,2 E,2 E,,2 E,2 | E,,2 E,2 E,,2 E,2 | %18
 A,,2 E,2 D,2 F,2 | E,2 A,,2 A,2 A,,2 | A,,2 E,2 D,2 F,2 | A,,2 E,2 D,2 F,2 | A,,2 E,2 E,,2 E,2 | %23
 A,,2 E,2 A,2 z2 |] %24

